!!!OTL: Folk song Number 31
!!!CNT: Chinese
**kern
*k[f#c#]
*M2/4
=1
8.dd
16b
8a
8b
=2
2dd
=3
(8b
8a)
(8f#
8a)
=4
(8b
8a)
4f#
=5
8.dd
16b
8a
8b
=6
2dd
=7
(8b
8a)
(8f#
8a)
=8
(8b
8a)
4f#
!!
=9
8dd
8dd
8dd
8b
=10
(8dd
8ee)
(8dd
8b)
=11
(16b
16dd
8b)
(8a
8dd)
=12
(16dd
16ee
4dd
8b)
=13
(16b
16dd
8b)
(8a
8ff#)
=14
(4.ee
8dd)
!! page 23
=15
4.ddT
8b
=16
2b
=17
(16b
8.ff#)
4b
=18
(4..dd
16b)
=19
4b
8dd
8b
=20
(4a
4f#)
=21
8dd
8b
8a
8b
=22
2dd
=23
(8b
8a)
(8f#
8a)
=24
(8b
8a)
4f#
=25
8dd
8b
8a
8b
=26
2dd
=27
8b
8a
8f#
8a
=28
(8b
8a)
4f#
=29
8dd
8b
8a
8b
=30
2dd
=31
8b
8a
8f#
8a
=32
(8b
8a)
4f#
!! Repeat
=33
8dd
8dd
8dd
8b
=34
(8dd
8ee)
(8dd
8b)
=35
(16b
16dd
8b)
(8a
8dd)
=36
(16dd
16ee
4dd
8b)
=37
(16b
16dd
8b)
(8a
8ff#)
=38
(4.ee
8dd)
!! page 23
=39
4.ddT
8b
=40
2b
=41
(16b
8.ff#)
4b
=42
(4..dd
16b)
=43
4b
8dd
8b
=44
(4a
4f#)
=45
8dd
8b
8a
8b
=46
2dd
=47
(8b
8a)
(8f#
8a)
=48
(8b
8a)
4f#
=49
8dd
8b
8a
8b
=50
2dd
=51
8b
8a
8f#
8a
=52
(8b
8a)
4f#
=53
8dd
8b
8a
8b
=54
2dd
=55
8b
8a
8f#
8a
=56
(8b
8a)
4f#
==
*-
!!!PPR: Yin yueh ch'u pan she
!!!OPR: Chung-kuo min ko Chung-kuo yin yueh yen chiu so pien [Chinese folk songs]
!!!OCL: Chung-kuo yin yueh yen chiu so
!!!PPP: Beijing, China
!!!PDT: 1959///
!!!SML: Edward Johnson Library, University of Toronto M1804.C4694C5
!!!PPG: pp.23-24
!!!ENC: David Huron
!!!EMD: Paul von Hippel updated this file in the following ways (1998/9/29/):
!!!EMD:  (1) changed the representation of slurs from curly braces to parentheses 
!!!EMD:  (2) changed freeform comments into reference records and tandem interpretations
!!!EMD:  (3) corrected the author, title, author, and call number of the printed source 
!!!EEV: Version 2.0
